src/Pure/16/symbolic/actions/list-remove-all-symbolic.svg

<svg width="16" height="16" enable-background="new" version="1.1" xmlns="http://www.w3.org/2000/svg">
 <path class="error" d="M12.5 9a3.5 3.5 0 1 0 0 7 3.5 3.5 0 0 0 0-7zm0 3H15v1h-5v-1z" color="#363636" enable-background="accumulate" fill="#e13f2b" overflow="visible"/>
 <path d="m2 3v1h12v-1h-12zm0 4v1h11 1v-1h-12zm0 4v1h6.1016a5 5 0 0 1 0.31836-1h-6.4199z" fill="#363636"/>
</svg>

<?xml version="1.0" encoding="UTF-8" standalone="no"?>
<svg
   width="16"
   height="16"
   enable-background="new"
   version="1.1"
   id="svg2"
   sodipodi:docname="list-remove-all-symbolic.svg"
   inkscape:version="1.4.2 (ebf0e940d0, 2025-05-08)"
   xmlns:inkscape="http://www.inkscape.org/namespaces/inkscape"
   xmlns:sodipodi="http://sodipodi.sourceforge.net/DTD/sodipodi-0.dtd"
   xmlns="http://www.w3.org/2000/svg"
   xmlns:svg="http://www.w3.org/2000/svg">
  <defs
     id="defs2">
     <style
        id="current-color-scheme"
        type="text/css">
        .ColorScheme-Text { color:#363636; }
        .ColorScheme-NegativeText { color:#da4453; }
     </style>
  </defs>
  <sodipodi:namedview
     id="namedview2"
     pagecolor="#ffffff"
     bordercolor="#000000"
     borderopacity="0.25"
     inkscape:showpageshadow="2"
     inkscape:pageopacity="0.0"
     inkscape:pagecheckerboard="0"
     inkscape:deskcolor="#d1d1d1"
     inkscape:zoom="49.6875"
     inkscape:cx="8"
     inkscape:cy="8"
     inkscape:window-width="1920"
     inkscape:window-height="1010"
     inkscape:window-x="0"
     inkscape:window-y="0"
     inkscape:window-maximized="1"
     inkscape:current-layer="svg2" />
  <path
     id="path2"
     style="fill:currentColor"
     class="ColorScheme-Text"
     d="M 2 3 L 2 4 L 14 4 L 14 3 L 2 3 z M 2 7 L 2 8 L 14 8 L 14 7 L 2 7 z M 2 11 L 2 12 L 8.1015625 12 C 8.1723095 11.656422 8.2790173 11.321243 8.4199219 11 L 2 11 z " />
  <path
     id="path3"
     style="opacity:1;fill:currentColor"
     class="ColorScheme-NegativeText"
     d="M 12.5 9 A 3.5 3.5 0 0 0 9 12.5 A 3.5 3.5 0 0 0 12.5 16 A 3.5 3.5 0 0 0 16 12.5 A 3.5 3.5 0 0 0 12.5 9 z M 10 12 L 15 12 L 15 13 L 10 13 L 10 12 z " />
</svg>
